X:78
T: Erloesung vom Galgen
N: Q0022B
O: Osteuropa, Ungarn, Komitat Wessprim, Veszpremfajsz
R: Spiel, Hinrichtung, Opfer, Rettung
M: 4/8
L: 1/8
K: E
E | EBBB | BAAA | BA=GB | F2z
E | EBBB | BAAA | BA=GB | F2z
F | =G2AA | B2AF | =G2F2 | E2z

